X:23037
T:Wals voor Polle
T:Paul's Waltz
R:Waltz
C:Wim Poesen, 1991, for Pol Ranson
O:Belgium
Z:Paul Hardy's Session Tunebook 2022 (see www.paulhardy.net). Creative Commons cc by-nc-sa licenced.
M:3/4
L:1/8
Q:1/4=140
K:D
A2|"D" f6|e2f2a2|"F#m" A6|A2B2c2|"G" d6|B2c2d2|"D" f6|"A" e4A2|
"D"f6|e2f2a2|"F#m" A6|A2B2c2|"G" d4f2|"A" e3dc2|"D" d6|1 d4:|2 d2e2f2||
|:"G"g4f2|e4d2|"A" c6|c2d2e2|"D" a4g2|f4e2|d6|d2e2f2|
"G"g4f2|e4d2|"A" c6-|c2B2A2|"D"d4f2|"A" e3dc2|"D" d6|1 d2e2f2:|2 d4|]

